X: 1
T: Belles Of Amaha, The
M: 4/4
L: 1/8
R: reel
K: Emin
B2({c}BA) BGEF|GABd efge|B2({c}BA) BGEF|GBAF EFGA|
B2({c}BA) BGEF|GABd efge|B2({c}BA) BGEF|GBAF E4:|
|:Bdef gfgb|agfg edBA|Bdef gfgb|agfg e2(dc)|
Bdef gfgb|agfg edBA|B2({c}BA) BGEF|GBAF E4:|
